X: 443
T: Ãcossaise No. 1.	 Op. 72
C: Fryderyk Chopin
%%abc-version 2.0
%%abcx-abcm2ps-target-version 5.9.1 (29 Sep 2008)
%%abc-creator hum2abc beta
%%abcx-conversion-date 2021/10/03 11:24:09
%%abc-edited-by JÄdrzej MrÃ³z
%%abc-edited-by Mateusz Mrugas
%%abcx-initial-encoding-date 2020-06-30
%%humdrum-veritas 285559595
%%humdrum-veritas-data 3111612483
%%linebreak <none>
%%barnumbers 0
L: 1/16
M: 2/4
N: Derived from 072sep-1e-Sam-001-ecossaise.krn
P: TROIS ÃCOSSAISES | par | FRÃDÃRIC CHOPIN. (1830).
Q: "[quarter] = 108" 1/4=108
%%staves {1 2}
V: 1 clef=treble
V: 2 clef=bass
K: D
[V:1] F2 [I:setbarnb 1]]|:  
[V:2] z2 ]|:  
[V:1] Az/b/az/G/ Az/b/az/F/ | 
[V:2] [D2F,2D,2]A,2 [E2G,2C,2]A,2 | 
[V:1] Az/b/az/F/ Az/e'/d'z/c'/ | 
[V:2] [D2F,2D,2]A,2 F,,2[D2A,2F,2] | 
[V:1] bz/^a/bz/^d/ ez/f/gz/a/ | 
[V:2] G,,2[^D2B,2G,2] [E2B,2G,2] z2 | 
[V:1] bz/e/ez/f/ ez/f/gz/^g/ | 
[V:2] [E2B,2G,2][E2D2B,2^G,2] [E2C2A,2] z2 | 
[V:1] az/b'/a'z/g/ az/b'/a'z/f/ | 
[V:2] [D2D,2][K:clef=treble][A2A,2] [A2G2C2][A2A,2] | 
[V:1] az/b'/a'z/f/ az/e''/d''z/c''/ | 
[V:2] [A2F2D2][A2A,2] [A2F2D2] z2[K:clef=bass] | 
[V:1] b'z/a'/g'z/f'/ e'z/d'/c'z/b/ |[1 
[V:2] G,,2[^D2B,2-G,2-] [E2B,2G,2] z2 | 
[V:1] az/g/fz/e/ dz/b/az/F/ :|][2 
[V:2] A,,2[G2C2A,2][F2D2] z2 :|]  
[V:1] az/g/fz/e/ d2f2 ]|: 
[V:2] A,,2[G2C2A,2][F2D2] z2 ]|:  
[V:1] !accent!a2>g2 !trill!fz/^e/fz/d/ | 
[V:2] C,2[G2E2A,2] D,2[F2D2A,2] | 
[V:1] !accent!f2>e2 !trill!dz/c/dz/B/ | 
[V:2] ^A,,2[E2C2F,2] B,,2[D2B,2F,2] | 
[V:1] d2!trill!cB A>Bc3/d/ | 
[V:2] ^G,,2[=F2D2B,2] A,,2[^F2D2A,2] | 
[V:1] e>ba>^e f>ba3/^g/ | 
[V:2] A,,2[G2C2A,2] D,2[F2D2A,2] | 
[V:1] (3:2:6aba^ga=g (3:2:6fgf^efd | 
[V:2] C,2[G2E2A,2] D,2[F2D2A,2] | 
[V:1] (3:2:6fgf^ef=e (3:2:6dedcdB | 
[V:2] ^A,,2[E2C2F,2] B,,2[D2B,2F,2] | 
[V:1] (3:2:6dedcdB (3:2:6ABcde=f |[1 
[V:2] ^G,,2[=F2D2B,2] A,,2[^F2D2A,2] | 
[V:1] (3:2:6^fg^gabc' d'2 z2 :|][2 
[V:2] A,,2[G2E2A,2] D,2[F2D2A,2] :|]  
[V:1] (3:2:6fg^gabc' d'z/b/az/F/ || 
[V:2] A,,2[G2E2A,2] [F2D2] z2 ||  
[V:1] Az/b/az/G/ Az/b/az/F/ | 
[V:2] [D2F,2D,2]A,2 [E2G,2C,2]A,2 | 
[V:1] Az/b/az/F/ Az/e'/d'z/c'/ | 
[V:2] [D2F,2D,2]A,2 F,,2[D2A,2F,2] | 
[V:1] bz/^a/bz/^d/ ez/f/gz/a/ | 
[V:2] G,,2[^D2B,2G,2] [E2B,2G,2] z2 | 
[V:1] bz/e/ez/f/ ez/f/gz/^g/ | 
[V:2] [E2B,2G,2][E2D2B,2^G,2] [E2C2A,2] z2 | 
[V:1] az/b'/a'z/g/ az/b'/a'z/f/ | 
[V:2] [D2D,2][K:clef=treble][A2A,2] [A2G2C2][A2A,2] | 
[V:1] az/b'/a'z/f/ az/e''/d''z/c''/ | 
[V:2] [A2F2D2][A2A,2] [A2F2D2] z2[K:clef=bass] | 
[V:1] b'z/a'/g'z/f'/ e'z/d'/c'z/b/ | 
[V:2] G,,2[^D2B,2-G,2-] [E2B,2G,2] z2 | 
[V:1] az/g/fz/e/ d2 z2 |]  
[V:2] A,,2[G2C2A,2] [F2D2] z2 |]
